src/assets/imgs/profit-two-page/2.svg

<svg fill="none" height="106" viewBox="0 0 88 106" width="88" xmlns="http://www.w3.org/2000/svg"><g fill="#000"><path d="m60.6665 9.15576-12.481 19.69864 2.6727 1.6934 12.481-19.6986z"/><path d="m55.1331 1.25769c-3.6914-2.34375-8.5547-1.230459-10.8985 2.46095l-32.3437 51.03516 2.6367 1.6992 32.3437-51.03515c1.4063-2.22656 4.336-2.87109 6.504-1.46484l2.2265 1.40625-32.8711 51.91404 2.6367 1.6993 34.5704-54.60944z"/><path d="m76.3194 23.7661-19.6382 12.5787 1.7067 2.6645 19.6382-12.5788z"/><path d="m85.2505 67.586c-3.5156-4.9219-10.3125-6.2696-15.4688-2.9883l-52.207 32.9883c-3.9258 2.461-9.08203 1.6406-12.07031-1.9336-3.10547-3.6914-2.8125-9.0821.58593-12.4805l1.46485-1.4063c.35156.293.70312.5274 1.05469.7618 1.99214 1.289 4.21874 1.875 6.44534 1.875 3.9843 0 7.9101-1.9922 10.2539-5.625 3.5742-5.625 1.875-13.125-3.75-16.6992-5.625-3.5743-13.12503-1.875-16.69925 3.75-1.69922 2.7539-2.28515 5.9765-1.58203 9.1406.35156 1.6406 1.05469 3.164 2.05078 4.5117l-1.46484 1.4648c-2.22656 2.168-3.515624 5.0977-3.632811 8.2032-.117188 3.1054.878901 6.0937 2.871091 8.4961 2.40234 2.9294 5.97656 4.4534 9.55076 4.4534 2.2852 0 4.5703-.645 6.6211-1.934l52.207-32.9882c3.75-2.3437 8.6719-1.4062 11.1915 2.168 2.6367 3.6914 1.8164 8.8476-1.875 11.5429l-5.8594 4.2774c-2.6367-2.5195-6.7969-2.9297-9.9024-.7617l-8.2031 5.6836 1.1719 1.6992-6.5039 4.5117 1.8164 2.5781 6.5039-4.5117 2.9883 4.3359-6.5039 4.5118 1.8164 2.578 6.5039-4.512 1.1719 1.7 8.2031-5.684c3.1055-2.168 4.2187-6.2109 2.7539-9.6094l5.918-4.3359c5.039-3.5156 6.2109-10.6641 2.5781-15.7617zm-77.69533-.0586c1.69922-2.6953 4.57033-4.1602 7.55863-4.1602 1.6406 0 3.2812.4688 4.7461 1.4063 4.1601 2.6367 5.3906 8.1445 2.7539 12.3046-2.6368 4.1602-8.1446 5.3907-12.3047 2.754-1.99221-1.2891-3.39846-3.2813-3.92581-5.5664-.52734-2.3438-.11718-4.6875 1.17188-6.7383zm64.68753 27.3047-5.625 3.8671-5.3907-7.7929 5.625-3.8672c2.168-1.4649 5.0977-.9375 6.5626 1.1719 1.4648 2.2265.9375 5.1562-1.1719 6.6211z"/><path d="m85.9534 31.9023-3.1055-4.8632-54.4336 34.8633 1.6992 2.6367 51.7969-33.1641 1.4063 2.2266c1.4062 2.1679.7617 5.1562-1.4063 6.5625l-50.918 32.5781 1.6993 2.6367 50.9179-32.5781c3.6329-2.3438 4.6875-7.207 2.3438-10.8985z"/></g></svg>

<svg width="88" height="106" viewBox="0 0 88 106" fill="none" xmlns="http://www.w3.org/2000/svg">
<path d="M60.6665 9.15576L48.1855 28.8544L50.8582 30.5478L63.3392 10.8492L60.6665 9.15576Z" fill="black"/>
<path d="M55.1331 1.25769C51.4417 -1.08606 46.5784 0.027231 44.2346 3.71864L11.8909 54.7538L14.5276 56.453L46.8713 5.41785C48.2776 3.19129 51.2073 2.54676 53.3753 3.95301L55.6018 5.35926L22.7307 57.2733L25.3674 58.9726L59.9378 4.36316L55.1331 1.25769Z" fill="black"/>
<path d="M76.3194 23.7661L56.6812 36.3448L58.3879 39.0093L78.0261 26.4305L76.3194 23.7661Z" fill="black"/>
<path d="M85.2505 67.586C81.7349 62.6641 74.938 61.3164 69.7817 64.5977L17.5747 97.586C13.6489 100.047 8.49267 99.2266 5.50439 95.6524C2.39892 91.961 2.69189 86.5703 6.09032 83.1719L7.55517 81.7656C7.90673 82.0586 8.25829 82.293 8.60986 82.5274C10.602 83.8164 12.8286 84.4024 15.0552 84.4024C19.0395 84.4024 22.9653 82.4102 25.3091 78.7774C28.8833 73.1524 27.1841 65.6524 21.5591 62.0782C15.9341 58.5039 8.43407 60.2032 4.85985 65.8282C3.16063 68.5821 2.5747 71.8047 3.27782 74.9688C3.62938 76.6094 4.33251 78.1328 5.3286 79.4805L3.86376 80.9453C1.6372 83.1133 0.348136 86.043 0.230949 89.1485C0.113761 92.2539 1.10985 95.2422 3.10204 97.6446C5.50438 100.574 9.0786 102.098 12.6528 102.098C14.938 102.098 17.2231 101.453 19.2739 100.164L71.4809 67.1758C75.2309 64.8321 80.1528 65.7696 82.6724 69.3438C85.3091 73.0352 84.4888 78.1914 80.7974 80.8867L74.938 85.1641C72.3013 82.6446 68.1411 82.2344 65.0356 84.4024L56.8325 90.086L58.0044 91.7852L51.5005 96.2969L53.3169 98.875L59.8208 94.3633L62.8091 98.6992L56.3052 103.211L58.1216 105.789L64.6255 101.277L65.7974 102.977L74.0005 97.293C77.106 95.125 78.2192 91.0821 76.7544 87.6836L82.6724 83.3477C87.7114 79.8321 88.8833 72.6836 85.2505 67.586ZM7.55517 67.5274C9.25439 64.8321 12.1255 63.3672 15.1138 63.3672C16.7544 63.3672 18.395 63.836 19.8599 64.7735C24.02 67.4102 25.2505 72.918 22.6138 77.0781C19.977 81.2383 14.4692 82.4688 10.3091 79.8321C8.31689 78.543 6.91064 76.5508 6.38329 74.2657C5.85595 71.9219 6.26611 69.5782 7.55517 67.5274ZM72.2427 94.8321L66.6177 98.6992L61.227 90.9063L66.852 87.0391C69.02 85.5742 71.9497 86.1016 73.4146 88.211C74.8794 90.4375 74.3521 93.3672 72.2427 94.8321Z" fill="black"/>
<path d="M85.9534 31.9023L82.8479 27.0391L28.4143 61.9024L30.1135 64.5391L81.9104 31.375L83.3167 33.6016C84.7229 35.7695 84.0784 38.7578 81.9104 40.1641L30.9924 72.7422L32.6917 75.3789L83.6096 42.8008C87.2425 40.457 88.2971 35.5938 85.9534 31.9023Z" fill="black"/>
</svg>
